X: 1773
T: April's Fool
R: jig
M: 6/8
K: Gmajor
|:F|GAB GAB|E3 EDE|GAB d2B|deB dBA|
GAB GAB|E3 EDE|G ge dBA|AGF G2:|
A|B2d dBd|e3 g2g|age dBd|edB AGA|
B2 d dBd|e3 g2g|age dBA|AGF G2 A||
B2 d dBd|e3 g2 g|age dBd|edB AGA|
GAB GAB|E3 EDE|G ge dBA|AGF G2||

